X:317
T: Xi kan gongshe nianjing hao
N: C0933
O: China,Guangdong, Jiaoling
S: II, 369]
N: Der Saenger Lai Yuan Shen war frueher selbst Landarbeiter. Heute ist
N: er Student an der Guangzhouer Musikhochschule. Aufgenommen am 5.5.87
N: Einige Verzierungen und Atemzeichen. Phrasierung ueberpruefen!
N: +++ Voellig anders gestaltet. Aber der Rahmen stimmt noch. +++
N: +++Hier wird ein weiteres Lied "Shange,Haozi" im naechsten Cut gesungen.
N: +++Numerierung erneut falsch.
R: Shange, Changtan Shange. Xin minge]
M: 3/4
L: 1/32
K: C
E4A4A16 | c4A4e16 |
c2d2A4AGAGA8E4 | c4c8c4e8 |
A4e4e16 | d4A4AGAGA8E4 |
E4e4e16 | c4c4AGAGA8E4 |
A2c2E4E16 | e4e4e16 |
A4A4AGAGA8E4 | c4c4AGAGA8E4 |
e4e4A4A8A2c2e8 | A4A4e16 |
e4A4c12c4e8 | e4A4AGAGA8E4 |
c4c4AGAGA8E4

@@@ Tune index: 6318
